X:1
T: Mrs. J. Bishop of Kew Green, London's Strathspey
C:William Marshall
R:Strathspey
Q: 128
K:F
M:4/4
L:1/16
|:F2|Ff3 f4 fedc d4|ABcd c2A2 A2G2 G2A2|Ff3 f4 efga b4|a2f2 efge a2f2 f2F2|
Ff3 f4 fedc d4|ABcd c2A2 A2G2 G2A2|Ff3 f4 efga b4|a2f2 efge a2f2 f2fg|
agfg a2f2 gfef g2e2|f2d2 =B2g2 e2c2 c2Bc|dcBc d2B2 cBAB c2A2|B2G2 E2c2 A2F2 F2fg|
agfg a2f2 gfef g2e2|f2d2 =B2g2 e2c2 c2Bc|d2B,2 B,2d2 c2A,2 A,2c2|B2G2 E2c2 A2F2 F2:|
